X:28
T:Arkansas Traveler
C:Chris Thile
R:bluegrass
A: Leading Off 
L:1/8
Q:1/4=240
M:4/4
K:D
A,B, |: "D"DF ED "G"B,2 DB, | "A"A,D A,B, "D"D2 A,2 | "A"DE A,2 EF A,2 | EF ED B,D A,B, | 
"D"DF ED "G"B,2 DB, | "A"A,D A,B, "D"D2 AB | dc dA "G"Bd AG |1 F"A"D EF "D"D2 A,B, :|2 F"A"D EF "D"D2 fg |] 
"D"ag fa "G"gf eg | "D"fe df "A"ed cA | "D"dc df "A"ed eg | "D"fe df "A"e2 fg | 
"D"ag fa "G"gf eg | "D"fe df "A"ed cA | "D"dc dA "G"Bd AG | "A"FD EF "D"D2 fg | 
"D"ag fa "G"gf eg | "D"fe df "A"ed cA | "D"dA Ff "A"ec Ag | "D"fe df "A"ef g^g | 
"D"ag fa "G"gf eg | "D"fe df "A"ed cA | "D"dc dA "G"Bd AG | "A"FD EF "D"D4 | 

